svg/building/home_6_line.svg

<?xml version="1.0" encoding="UTF-8"?>
<svg width="24px" height="24px" viewBox="0 0 24 24" version="1.1" xmlns="http://www.w3.org/2000/svg" xmlns:xlink="http://www.w3.org/1999/xlink">
    <title>home_6_line</title>
    <g id="页面-1" stroke="none" stroke-width="1" fill="none" fill-rule="evenodd">
        <g id="Building" transform="translate(-384.000000, -96.000000)">
            <g id="home_6_line" transform="translate(384.000000, 96.000000)">
                 <path d="M24,0 L24,24 L0,24 L0,0 L24,0 Z M12.5934901,23.257841 L12.5819402,23.2595131 L12.5108777,23.2950439 L12.4918791,23.2987469 L12.4918791,23.2987469 L12.4767152,23.2950439 L12.4056548,23.2595131 C12.3958229,23.2563662 12.3870493,23.2590235 12.3821421,23.2649074 L12.3780323,23.275831 L12.360941,23.7031097 L12.3658947,23.7234994 L12.3769048,23.7357139 L12.4804777,23.8096931 L12.4953491,23.8136134 L12.4953491,23.8136134 L12.5071152,23.8096931 L12.6106902,23.7357139 L12.6232938,23.7196733 L12.6232938,23.7196733 L12.6266527,23.7031097 L12.609561,23.275831 C12.6075724,23.2657013 12.6010112,23.2592993 12.5934901,23.257841 L12.5934901,23.257841 Z M12.8583906,23.1452862 L12.8445485,23.1473072 L12.6598443,23.2396597 L12.6498822,23.2499052 L12.6498822,23.2499052 L12.6471943,23.2611114 L12.6650943,23.6906389 L12.6699349,23.7034178 L12.6699349,23.7034178 L12.678386,23.7104931 L12.8793402,23.8032389 C12.8914285,23.8068999 12.9022333,23.8029875 12.9078286,23.7952264 L12.9118235,23.7811639 L12.8776777,23.1665331 C12.8752882,23.1545897 12.8674102,23.1470016 12.8583906,23.1452862 L12.8583906,23.1452862 Z M12.1430473,23.1473072 C12.1332178,23.1423925 12.1221763,23.1452606 12.1156365,23.1525954 L12.1099173,23.1665331 L12.0757714,23.7811639 C12.0751323,23.7926639 12.0828099,23.8018602 12.0926481,23.8045676 L12.108256,23.8032389 L12.3092106,23.7104931 L12.3186497,23.7024347 L12.3186497,23.7024347 L12.3225043,23.6906389 L12.340401,23.2611114 L12.337245,23.2485176 L12.337245,23.2485176 L12.3277531,23.2396597 L12.1430473,23.1473072 Z" id="MingCute" fill-rule="nonzero"></path>
                <path d="M13.2279,2.68814 C12.5057,2.12641 11.4944,2.12641 10.7722,2.68814 L2.38841,9.20884 C1.63605,9.79401 2.04989,11 3.00297,11 L4.00005,11 L4.00005,19 C4.00005,20.1046 4.89548,21 6.00005,21 L12.0001,21 L18.0001,21 C19.1046,21 20.0001,20.1046 20.0001,19 L20.0001,11 L20.9971,11 C21.9492,11 22.3648,9.79463 21.6117,9.20884 L13.2279,2.68814 Z M13.0001,19 L13.0001,13 C13.0001,12.4477 12.5523,12 12.0001,12 C11.4478,12 11.0001,12.4477 11.0001,13 L11.0001,19 L6.00005,19 L6.00005,10.01 C6.00005,9.69297 5.85399,9.41004 5.62546,9.22486 L12.0001,4.26685 L18.3746,9.22486 C18.1461,9.41003 18.0001,9.69295 18.0001,10.01 L18.0001,19 L13.0001,19 Z" id="形状" fill="#09244B"></path>
            </g>
        </g>
    </g>
</svg>

<svg xmlns="http://www.w3.org/2000/svg" width="24" height="24"><g fill="none" fill-rule="evenodd"><path d="M24 0v24H0V0h24ZM12.593 23.258l-.011.002-.071.035-.02.004-.014-.004-.071-.035c-.01-.004-.019-.001-.024.005l-.004.01-.017.428.005.02.01.013.104.074.015.004.012-.004.104-.074.012-.016.004-.017-.017-.427c-.002-.01-.009-.017-.017-.018Zm.265-.113-.013.002-.185.093-.01.01-.003.011.018.43.005.012.008.007.201.093c.012.004.023 0 .029-.008l.004-.014-.034-.614c-.003-.012-.01-.02-.02-.022Zm-.715.002a.023.023 0 0 0-.027.006l-.006.014-.034.614c0 .012.007.02.017.024l.015-.002.201-.093.01-.008.004-.011.017-.43-.003-.012-.01-.01-.184-.092Z"/><path fill="#09244B" d="M13.228 2.688a2 2 0 0 0-2.456 0l-8.384 6.52C1.636 9.795 2.05 11 3.003 11H4v8a2 2 0 0 0 2 2h12a2 2 0 0 0 2-2v-8h.997c.952 0 1.368-1.205.615-1.791l-8.384-6.52ZM13 19v-6a1 1 0 0 0-2 0v6H6v-8.99c0-.317-.146-.6-.375-.785L12 4.267l6.375 4.958a1.008 1.008 0 0 0-.375.785V19h-5Z"/></g></svg>
